build/img/icon-update.svg

<svg width="14" height="14" viewBox="0 0 14 14" fill="none" xmlns="http://www.w3.org/2000/svg">
<path opacity="0.25" d="M14 5.54128H8.72425L10.8587 3.3481C8.73592 1.24436 5.2991 1.16659 3.17636 3.27033C1.05362 5.37407 1.05362 8.7805 3.17636 10.8842C5.2991 12.988 8.73592 12.988 10.8587 10.8842C11.9161 9.83432 12.4449 8.61718 12.441 7.07729H14C14 8.61718 13.3157 10.6159 11.9472 11.9731C9.218 14.6756 4.78591 14.6756 2.05667 11.9731C-0.672564 9.27047 -0.692003 4.88799 2.03723 2.1854C4.76258 -0.517186 9.14802 -0.517186 11.8734 2.1854L14 0V5.54128Z" fill="#383838"/>
</svg>

<svg width="14" height="14" fill="none" xmlns="http://www.w3.org/2000/svg"><path opacity=".25" d="M14 5.541H8.724l2.135-2.193c-2.123-2.104-5.56-2.181-7.683-.078a5.348 5.348 0 000 7.614 5.464 5.464 0 007.683 0c1.057-1.05 1.586-2.267 1.582-3.807H14c0 1.54-.684 3.539-2.053 4.896-2.729 2.703-7.161 2.703-9.89 0-2.73-2.703-2.749-7.085-.02-9.788a6.98 6.98 0 019.836 0L14 0v5.541z" fill="#383838"/></svg>
